X:1
T:Mr Mackintosh Goes to London
M:C|
L:1/8
R:March
C:T. S. Macdonald
K:Eb
C2    | B,2 E2 E2 B/c/d | eBGB E2 AB      | !uppermordent!cBAG !uppermordent!AGFE | D2 F2 F2 DC |
        B,2 E2 E2 B/c/d | egbg e3 d       | !uppermordent!cBAG !uppermordent!FEDF | G2 E2 E2 DC |
        B,EGE BEGE      | !turn!cBcd eEDE | !uppermordent!cBAG !uppermordent!AGFE | FGFE DCB,A, |
        LG,E !turn!E2 LB,E !turn!E2 | LA,E !turn!E2 LG,E !turn!E2 | B,EGB ecBA | G2 E2 E2 ||
B/c/d | e2 g2 g2 fg | agfe d3 e             | Lc(AGA) LB(GFG) | AGFE  F2 B/c/d | 
        e2 g2 g2 ag | fedc B3 A             | GFEG FEDF | G2 E2 E2 A/G/F |
        EGBe gBeg   | a{g}fg{f}e !turn!d3 e | Lc(aga) LB(gfg) | edcB  AGFE     |
        LG,E !turn!E2 LB,E !turn!E2 | LA,E !turn!E2 LG,E !turn!E2 | B,EGB ecBA | G2 E2 E2 |]

